X:0498
T:By Jove I'll be free.
M:3/8
L:1/16
Q:3/8=96 "Moderato"
I: |: :|
Z:Jack Campin * www.campin.me.uk * 2009
K:D
D2|F2A2A2|A2d2A2| FGA2A2 |A4  A2|B2c2d2  | e2A2G2 |FAGFED |E4D2|
   F2A2A2|A2d2A2|(FGA2)A2|A4  e2|f2(edcB)|(cde2)A2|d2cBA^G|A4 ::
A2|d2e2f2|B2c2d2| e2dcB^A|B4  d2|F2A2A2  | A2d2A2 |B2gfed |c4d2|
   e2A2G2|F4  A2| B2c2d2 |e2B2f2|g2fedc  | d4 :|

